X:1
T:Emerald Gates
T:B  Major                   Ananias Davisson, 1820
T:Richard Kempenfelt, 1777             76. 76. 77. 77.
T:Transcribed from Supplement to the Kentucky Harmony, 1825.
%%score [ 1 2 3 4 ]
L:1/8
Q:1/4=120
M:6/4
K:Bb
V:1 treble nm="Tr." snm="Tr."
V:2 treble nm="C." snm="C."
V:3 treble-8 nm="T." snm="T."
V:4 bass nm="B." snm="B."
V:1
"_Burst ye emerald gates and bring  To my  raptured  vi     –    sion""_1. {""_All the  ecstatic joys, that  spring  Round  the  bright  e –ly–sian;" (B2 d2) d2 (d2 c2) B2 | %1
 (A2 c2) c2 c6 | f4 f2 (c2 d2) c2 | (B3 cBc)"_}" d6 :: %4
"_Lo! we lift our longing eyes, Break ye intervening skies; Sun of righteousness arise,  Op'n  the  gates  of  paradise." z12 | %5
 z12 | B4 c2 d4 B2 | f4 d2 c6 | G4 G2 (G2 F2) D2 | B4 d2 c6 | (f2 e2) f2 (g2 f2) d2 | d4 c2 B6 :| %12
V:2
"_Floods  of  ev–er–las–ting  light   F reely  flash  be – fore      him;""_Myr –iads with supreme delight,  In–stant–ly   a  –  dore     him:""_2. {" F4 F2 F4 F2 | %1
 G4 F2 F6 | B4 B2 G4 F2 | (D4 F2)"_}" F6 :: %4
"_Angel trumps resound his fame,  Lutes of lucid gold proclaim,  All the music of his name;  Heaven echoing the theme." z12 | %5
 z12 | B4 c2 B4 G2 | A4 F2 F6 | B4 d2 (G2 F2) G2 | F4 G2 F6 | B4 F2 D4 F2 | G4 F2 F6 :| %12
V:3
"_Four  and  twen–ty  el–ders rise   From  their  prince–ly  sta – tion;""_Shout his  glo–rious vic–to–ries,  Sing   the   great  sal – va – tion;""_3. {" (F2 B2) B2 (B2 c2) d2 | %1
 e4 d2 c6 | F4 F2 (G2 A2) B2 | (B2 A2 G2)"_}" F6 :: %4
"_Cast their crowns before his throne,  Cry in reverential tone,  Glory be to God alone;  Ho – ly!  ho – ly!  ho – ly  one." z12 | %5
 z12 | e4 c2 d4 B2 | c4 A2 F6 | e4 d2 (c2 d2) e2 | f4 ed c6 | (f2 e2) d2 (e2 d2) c2 | B4 A2 B6 :| %12
V:4
"__________________________________________ \nEdited by B. C. Johnston, 2017.\n   1. Measure 2, Counter: first note changed from G to A.""_Join    we  too  their  ho – ly lays,  Je – sus!  Je – sus!  Je – sus!""_Hark!  the  thrilling  symphonies   Seem,  methinks, to  seize  us;""_4. {" B,4 B,2 (G,2 A,2) B,2 | %1
 C4 C2 F,6 | B,,4 B,,2 (B,,2 C,2) D,2 | G,6"_}" F,6 :: %4
"_Sweetest sound in Seraph's song,  Sweetest notes on mortal tongue,  Sweetest carol ever sung, Jesus,Jesus flow along." D,4 E,2 F,4 B,2 | %5
 G,4 A,2 F,6 | B,4 A,2 B,4 B,2 | C4 A,2 F,6 | B,4 B,2 (G,2 F,2) D,2 | B,,4 D,2 F,6 | %10
 (B,2 A,2) G,2 A,4 F,2 | B,4 F,2 B,,6 :| %12

